X: 1
T: Master Crowley's
R: reel
M: 4/4
L: 1/8
K: Edor
|:B,E (3EEE B,EFE|EDB,D A,DFD|B,E (3EEE B,EGB|
AFDE FEED|B,E (3EEE B,EFE|EDB,D A,DFD|
B,E (3EEE B,EGB|1 AFdF FEED:|2 AFdF FEEA|
|:Bbab fgeg|fd (3ddd Adfd|Bbab fgeg|
fdAF FEEA|Bbab fgeg|fd (3ddd Adfd|
EFGA BABd|1 AFdF FEEA:|2 AFdF FEED|


Tune 281	Setting 13031

